Dominus_Funeral/scalable/actions/stock_folder-properties.svg

<svg xmlns="http://www.w3.org/2000/svg" width="24" height="24"><path fill="#1a1a1a" d="M8.34 1.75c-.33 0-.67.05-.98.18a2.2 2.2 0 0 0-.92.7c-.3.39-.5.87-.6 1.36-.3.08-.58.2-.85.33a10.87 10.87 0 0 1-.93-1.78.13.13 0 0 0-.1-.08c-.1-.02-.16.07-.22.12-.24.23-.45.49-.58.79-.28.6-.24 1.27-.02 1.89.06.17.13.35.22.51a4.47 4.47 0 0 0-.45.83 11.07 11.07 0 0 1-1.83-.76.13.13 0 0 0-.13 0c-.07.04-.07.15-.08.22a2.73 2.73 0 0 0-.02.52 2.21 2.21 0 0 0 .82 1.62c.28.23.6.42.93.56.03.32.1.63.2.93l-.07.03a11.17 11.17 0 0 1-1.81.57.13.13 0 0 0-.1.15c0 .04.03.07.05.1l.06.1a2.23 2.23 0 0 0 1.75 1.05c.44.05.87-.02 1.29-.15.23.22.48.41.75.58l-.04.09a11.17 11.17 0 0 1-1.03 1.59.13.13 0 0 0 .03.18c.03.03.08.04.12.05a2.59 2.59 0 0 0 .72.14c.3.01.6-.04.87-.14.3-.11.55-.29.78-.5a3.68 3.68 0 0 0 .64-.75 4.6 4.6 0 0 0 .6 0 2.38 2.38 0 0 0 .48.75A11.33 11.33 0 0 1 8 14.67c0 .04 0 .09.02.13a.13.13 0 0 0 .1.05l.12-.03a2.9 2.9 0 0 0 .62-.34l.12-.1c.12.06.25.13.38.18.04.4.13.8.25 1.16l-.1.04a13.88 13.88 0 0 1-2.24.7.16.16 0 0 0-.13.2c.01.04.05.08.07.12l.08.13a2.74 2.74 0 0 0 2.18 1.31 4.27 4.27 0 0 0 1.6-.2c.28.27.59.52.93.72l-.06.1a13.89 13.89 0 0 1-1.27 1.99.16.16 0 0 0 .04.23c.04.03.1.04.15.06a3.22 3.22 0 0 0 .89.17c.37.01.74-.05 1.08-.18.36-.14.69-.35.98-.6.3-.28.56-.6.78-.95a5.6 5.6 0 0 0 1.16-.06l.04.15a13.85 13.85 0 0 1 .3 2.26c0 .06 0 .11.02.16a.16.16 0 0 0 .12.07c.06 0 .11-.03.16-.05a3.17 3.17 0 0 0 .77-.41 2.72 2.72 0 0 0 .72-.8 3.12 3.12 0 0 0 .4-1.15 4.58 4.58 0 0 0-.01-1.3c.3-.22.57-.48.82-.76a13.66 13.66 0 0 1 1.85 1.68c.04.04.08.09.14.1.12 0 .17-.1.21-.2a3.59 3.59 0 0 0 .16-.32c.17-.42.26-.87.22-1.33a2.95 2.95 0 0 0-.33-1.12 4.4 4.4 0 0 0-1-1.23c.08-.35.13-.72.14-1.1h.2a13.65 13.65 0 0 1 2.36.1c.1.02.21-.06.2-.18l-.02-.06.01.06a3.01 3.01 0 0 0-.87-1.7c-.39-.37-.88-.6-1.4-.73a4.88 4.88 0 0 0-1.07-.15 5.59 5.59 0 0 0-.58-.92l.13-.12A13.87 13.87 0 0 1 21.35 9a.17.17 0 0 0 .07-.09c.04-.12-.05-.19-.13-.25a3.43 3.43 0 0 0-.56-.36c-.37-.2-.78-.3-1.2-.31a3.04 3.04 0 0 0-1.08.18c-.46.16-.9.42-1.28.72a5.53 5.53 0 0 0-1.05-.34 14.08 14.08 0 0 1 .53-2.46l.02-.05a.16.16 0 0 0-.16-.2 3.26 3.26 0 0 0-1.22.23 2.72 2.72 0 0 0-1.14.86c-.22.3-.4.62-.52.96a2.25 2.25 0 0 0-.57-.9 2.56 2.56 0 0 0-1.13-.58 3.92 3.92 0 0 0-.86-.12 4.5 4.5 0 0 0-.47-.74 11.16 11.16 0 0 1 1.63-1.27.14.14 0 0 0 .06-.07c.03-.09-.04-.14-.1-.2a2.77 2.77 0 0 0-.46-.29 2.22 2.22 0 0 0-.96-.25 2.45 2.45 0 0 0-.87.15 3.6 3.6 0 0 0-1.03.58 4.44 4.44 0 0 0-.84-.28 11.32 11.32 0 0 1 .42-1.98l.02-.03a.13.13 0 0 0-.13-.16zM7.07 5.86a2.44 2.44 0 1 1 0 4.88 2.44 2.44 0 0 1 0-4.88zm5.21 2.56a11.61 11.61 0 0 1 1.16.07l-.04.14a5.53 5.53 0 0 0-1.05.42 13.18 13.18 0 0 1-.38-.63h.31zm2.65 2.54a3.03 3.03 0 1 1 0 6.06 3.03 3.03 0 0 1 0-6.06z"/></svg>

<?xml version="1.0" encoding="UTF-8" standalone="no"?>
<svg
   xmlns:dc="http://purl.org/dc/elements/1.1/"
   xmlns:cc="http://creativecommons.org/ns#"
   xmlns:rdf="http://www.w3.org/1999/02/22-rdf-syntax-ns#"
   xmlns:svg="http://www.w3.org/2000/svg"
   xmlns="http://www.w3.org/2000/svg"
   xmlns:sodipodi="http://sodipodi.sourceforge.net/DTD/sodipodi-0.dtd"
   xmlns:inkscape="http://www.inkscape.org/namespaces/inkscape"
   width="24"
   height="24"
   version="1.1"
   id="svg4"
   sodipodi:docname="stock_folder-properties.svg"
   inkscape:version="0.92.4 (5da689c313, 2019-01-14)">
  <metadata
     id="metadata10">
    <rdf:RDF>
      <cc:Work
         rdf:about="">
        <dc:format>image/svg+xml</dc:format>
        <dc:type
           rdf:resource="http://purl.org/dc/dcmitype/StillImage" />
        <dc:title></dc:title>
      </cc:Work>
    </rdf:RDF>
  </metadata>
  <defs
     id="defs8" />
  <sodipodi:namedview
     pagecolor="#ffffff"
     bordercolor="#666666"
     borderopacity="1"
     objecttolerance="10"
     gridtolerance="10"
     guidetolerance="10"
     inkscape:pageopacity="0"
     inkscape:pageshadow="2"
     inkscape:window-width="1112"
     inkscape:window-height="480"
     id="namedview6"
     showgrid="false"
     inkscape:zoom="9.8333333"
     inkscape:cx="1.0677966"
     inkscape:cy="12"
     inkscape:window-x="0"
     inkscape:window-y="25"
     inkscape:window-maximized="0"
     inkscape:current-layer="svg4" />
  <path
     d="M 8.34,1.75 C 8.01,1.75 7.67,1.8 7.36,1.93 A 2.2,2.2 0 0 0 6.44,2.63 C 6.14,3.02 5.94,3.5 5.84,3.99 5.54,4.07 5.26,4.19 4.99,4.32 A 10.87,10.87 0 0 1 4.06,2.54 0.13,0.13 0 0 0 3.96,2.46 C 3.86,2.44 3.8,2.53 3.74,2.58 3.5,2.81 3.29,3.07 3.16,3.37 2.88,3.97 2.92,4.64 3.14,5.26 3.2,5.43 3.27,5.61 3.36,5.77 A 4.47,4.47 0 0 0 2.91,6.6 11.07,11.07 0 0 1 1.08,5.84 0.13,0.13 0 0 0 0.95,5.84 C 0.88,5.88 0.88,5.99 0.87,6.06 A 2.73,2.73 0 0 0 0.85,6.58 2.21,2.21 0 0 0 1.67,8.2 C 1.95,8.43 2.27,8.62 2.6,8.76 2.63,9.08 2.7,9.39 2.8,9.69 L 2.73,9.72 a 11.17,11.17 0 0 1 -1.81,0.57 0.13,0.13 0 0 0 -0.1,0.15 c 0,0.04 0.03,0.07 0.05,0.1 l 0.06,0.1 a 2.23,2.23 0 0 0 1.75,1.05 c 0.44,0.05 0.87,-0.02 1.29,-0.15 0.23,0.22 0.48,0.41 0.75,0.58 l -0.04,0.09 a 11.17,11.17 0 0 1 -1.03,1.59 0.13,0.13 0 0 0 0.03,0.18 c 0.03,0.03 0.08,0.04 0.12,0.05 a 2.59,2.59 0 0 0 0.72,0.14 c 0.3,0.01 0.6,-0.04 0.87,-0.14 0.3,-0.11 0.55,-0.29 0.78,-0.5 a 3.68,3.68 0 0 0 0.64,-0.75 4.6,4.6 0 0 0 0.6,0 2.38,2.38 0 0 0 0.48,0.75 11.33,11.33 0 0 1 0.11,1.14 c 0,0.04 0,0.09 0.02,0.13 a 0.13,0.13 0 0 0 0.1,0.05 l 0.12,-0.03 a 2.9,2.9 0 0 0 0.62,-0.34 l 0.12,-0.1 c 0.12,0.06 0.25,0.13 0.38,0.18 0.04,0.4 0.13,0.8 0.25,1.16 l -0.1,0.04 a 13.88,13.88 0 0 1 -2.24,0.7 0.16,0.16 0 0 0 -0.13,0.2 c 0.01,0.04 0.05,0.08 0.07,0.12 l 0.08,0.13 a 2.74,2.74 0 0 0 2.18,1.31 4.27,4.27 0 0 0 1.6,-0.2 c 0.28,0.27 0.59,0.52 0.93,0.72 l -0.06,0.1 a 13.89,13.89 0 0 1 -1.27,1.99 0.16,0.16 0 0 0 0.04,0.23 c 0.04,0.03 0.1,0.04 0.15,0.06 a 3.22,3.22 0 0 0 0.89,0.17 c 0.37,0.01 0.74,-0.05 1.08,-0.18 0.36,-0.14 0.69,-0.35 0.98,-0.6 0.3,-0.28 0.56,-0.6 0.78,-0.95 a 5.6,5.6 0 0 0 1.16,-0.06 l 0.04,0.15 a 13.85,13.85 0 0 1 0.3,2.26 c 0,0.06 0,0.11 0.02,0.16 a 0.16,0.16 0 0 0 0.12,0.07 c 0.06,0 0.11,-0.03 0.16,-0.05 a 3.17,3.17 0 0 0 0.77,-0.41 2.72,2.72 0 0 0 0.72,-0.8 3.12,3.12 0 0 0 0.4,-1.15 4.58,4.58 0 0 0 -0.01,-1.3 c 0.3,-0.22 0.57,-0.48 0.82,-0.76 a 13.66,13.66 0 0 1 1.85,1.68 c 0.04,0.04 0.08,0.09 0.14,0.1 0.12,0 0.17,-0.1 0.21,-0.2 a 3.59,3.59 0 0 0 0.16,-0.32 c 0.17,-0.42 0.26,-0.87 0.22,-1.33 a 2.95,2.95 0 0 0 -0.33,-1.12 4.4,4.4 0 0 0 -1,-1.23 c 0.08,-0.35 0.13,-0.72 0.14,-1.1 h 0.2 a 13.65,13.65 0 0 1 2.36,0.1 c 0.1,0.02 0.21,-0.06 0.2,-0.18 l -0.02,-0.06 0.01,0.06 a 3.01,3.01 0 0 0 -0.87,-1.7 C 21.97,12 21.48,11.77 20.96,11.64 a 4.88,4.88 0 0 0 -1.07,-0.15 5.59,5.59 0 0 0 -0.58,-0.92 l 0.13,-0.12 A 13.87,13.87 0 0 1 21.35,9 0.17,0.17 0 0 0 21.42,8.91 C 21.46,8.79 21.37,8.72 21.29,8.66 A 3.43,3.43 0 0 0 20.73,8.3 C 20.36,8.1 19.95,8 19.53,7.99 a 3.04,3.04 0 0 0 -1.08,0.18 c -0.46,0.16 -0.9,0.42 -1.28,0.72 A 5.53,5.53 0 0 0 16.12,8.55 14.08,14.08 0 0 1 16.65,6.09 l 0.02,-0.05 a 0.16,0.16 0 0 0 -0.16,-0.2 3.26,3.26 0 0 0 -1.22,0.23 2.72,2.72 0 0 0 -1.14,0.86 c -0.22,0.3 -0.4,0.62 -0.52,0.96 A 2.25,2.25 0 0 0 13.06,6.99 2.56,2.56 0 0 0 11.93,6.41 3.92,3.92 0 0 0 11.07,6.29 4.5,4.5 0 0 0 10.6,5.55 11.16,11.16 0 0 1 12.23,4.28 0.14,0.14 0 0 0 12.29,4.21 C 12.32,4.12 12.25,4.07 12.19,4.01 A 2.77,2.77 0 0 0 11.73,3.72 2.22,2.22 0 0 0 10.77,3.47 2.45,2.45 0 0 0 9.9,3.62 3.6,3.6 0 0 0 8.87,4.2 4.44,4.44 0 0 0 8.03,3.92 11.32,11.32 0 0 1 8.45,1.94 L 8.47,1.91 A 0.13,0.13 0 0 0 8.34,1.75 Z M 7.07,5.86 a 2.44,2.44 0 1 1 0,4.88 2.44,2.44 0 0 1 0,-4.88 z m 5.21,2.56 a 11.61,11.61 0 0 1 1.16,0.07 L 13.4,8.63 A 5.53,5.53 0 0 0 12.35,9.05 13.18,13.18 0 0 1 11.97,8.42 Z m 2.65,2.54 a 3.03,3.03 0 1 1 0,6.06 3.03,3.03 0 0 1 0,-6.06 z"
     id="path2"
     inkscape:connector-curvature="0"
     style="fill:#1a1a1a" />
</svg>
